X:1
T:Lecce, 77.77 D
T:Lecce, 77.77 D
T:Ira David Sankey, 1874
T:Public Domain Courtesy of the Cyber Hymnal™
C:Ira David Sankey, 1874
Z:Public Domain
Z:Courtesy of the Cyber Hymnal™
%%score ( 1 2 ) ( 3 4 )
L:1/8
Q:1/4=102
M:4/4
K:Bb
V:1 treble 
V:2 treble 
V:3 bass 
V:4 bass 
V:1
 [Fd]3 [Ec] [DB]2 [DB]2 | [Ec]2 [EB]2 [EG]4 | [GB]2 [EG]2 [DF]3 [DF] | [FB]2 [Fd]2 [Fc]4 | %4
 [Fd]3 [Ge] [Fd]3 [Fc] | [Fd]3 [Ec] [DB]4 | [GB]2 [EG]2 F3 [DB] | [Fd]2 [Ec]2 [DB]4 | %8
 [Ff]3 [Fe] [Fd]3 [Fc] | [FB]2 [EG]2 [DF]4 | [DF]2 [DF]2 [DB]3 [DF] | [FB]2 [Fd]2 [Fc]4 | %12
 [Fd]2 [Fe]2 [Ff]3 [Fd] | [Fc]2 [FB]2 [EG]4 | [GB]2 [EG]2 [DF]3 [DB] | .[FB]3 .[EA] [DB]4 |] %16
V:2
 x8 | x8 | x8 | x8 | x8 | x8 | x4 F3 x | x8 | x8 | x8 | x8 | x8 | x8 | x8 | x8 | x8 |] %16
V:3
 [B,,B,]3 [B,,B,] [B,,B,]2 [B,,B,]2 | [E,G,]2 [E,G,]2 [E,B,]4 | [E,B,]2 [E,B,]2 [B,,B,]3 [B,,B,] | %3
 [D,B,]2 [B,,B,]2 [F,A,]4 | [B,,B,]3 [B,,B,] [B,,B,]3 [F,A,] | [F,B,]3 [F,A,] [B,,B,]4 | %6
 [E,B,]2 [E,B,]2 [D,B,]3 [G,B,] | [F,B,]2 [F,A,]2 [B,,B,]4 | [B,D]3 [B,C] B,3 [F,A,] | %9
 [D,B,]2 [E,B,]2 [B,,B,]4 | [B,,B,]2 [B,,B,]2 [B,,F,]3 [B,,B,] | [D,B,]2 [B,,B,]2 [F,A,]4 | %12
 B,2 [B,C]2 [B,D]3 B, | [F,A,]2 [D,B,]2 [E,B,]4 | [E,B,]2 [E,B,]2 [F,B,]3 [F,B,] | %15
 .[F,D]3 .[F,C] [B,,B,]4 |] %16
V:4
 x8 | x8 | x8 | x8 | x8 | x8 | x8 | x8 | x4 B,3 x | x8 | x8 | x8 | B,2 x3 B, x2 | x8 | x8 | x8 |] %16

